libs/icons/src/svg/dashboard-outline.svg

<svg width="16" height="16" viewBox="0 0 16 16" fill="none" xmlns="http://www.w3.org/2000/svg">
<g clip-path="url(#clip0_3_1633)">
<path fill-rule="evenodd" clip-rule="evenodd" d="M7.58758 0.816509C7.85349 0.616726 8.18587 0.616726 8.45178 0.816509L15.7642 6.80999C16.0302 7.00978 16.0966 7.47594 15.8307 7.74231C15.6313 8.00869 15.166 8.07528 14.9 7.80891L7.98644 2.21499L1.07283 7.8755C0.806927 8.07528 0.341588 8.07528 0.142157 7.80891C-0.057274 7.54253 -0.057274 7.07637 0.208634 6.87659L7.58758 0.816509ZM5.99213 11.3384C5.99213 10.9388 6.25804 10.6725 6.6569 10.6725H9.31598C9.71484 10.6725 9.98075 10.9388 9.98075 11.3384V14.6681H12.6398V8.67463C12.6398 8.27507 12.9057 8.00869 13.3046 8.00869C13.7035 8.00869 13.9694 8.27507 13.9694 8.67463V15.3341C13.9694 15.7336 13.7035 16 13.3046 16H9.31598H6.6569H2.66828C2.26942 16 2.00351 15.7336 2.00351 15.3341V8.67463C2.00351 8.27507 2.26942 8.00869 2.66828 8.00869C3.06714 8.00869 3.33305 8.27507 3.33305 8.67463V14.6681H5.99213V11.3384ZM7.32167 14.6681H8.65121V12.0043H7.32167V14.6681Z" fill="#202327"/>
</g>
<defs>
<clipPath id="clip0_3_1633">
<rect width="16" height="16" fill="white"/>
</clipPath>
</defs>
</svg>

<svg xmlns="http://www.w3.org/2000/svg" viewBox="0 0 16 16" class="sageicon"><path fill-rule="evenodd" d="M7.588.817c.265-.2.598-.2.864 0l7.312 5.993c.266.2.333.666.067.932-.2.267-.665.333-.931.067L7.986 2.215l-6.913 5.66c-.266.2-.731.2-.93-.066-.2-.266-.2-.733.066-.932L7.588.817ZM5.992 11.338c0-.4.266-.665.665-.665h2.659c.399 0 .665.266.665.665v3.33h2.659V8.675c0-.4.266-.666.665-.666s.664.266.664.666v6.66c0 .399-.265.665-.664.665H2.668c-.399 0-.664-.266-.664-.666v-6.66c0-.399.265-.665.664-.665.4 0 .665.266.665.666v5.993h2.66v-3.33Zm1.33 3.33h1.33v-2.664h-1.33v2.664Z"/></svg>
